src/places/24/folder-remote.svg

<svg width="24" height="24" version="1.1" xmlns="http://www.w3.org/2000/svg">
 <defs>
  <style id="current-color-scheme" type="text/css">.ColorScheme-Text { color:#363636; }</style>
 </defs>
 <path class="ColorScheme-Text" d="m5.9998 5c-1.108 0-2 0.892-2 2v9c0 1.108 0.892 2 2 2h5.5v1h-6.9453c-0.30778 0-0.55469 0.223-0.55469 0.5s0.24691 0.5 0.55469 0.5h14.891c0.30778 0 0.55469-0.223 0.55469-0.5s-0.24691-0.5-0.55469-0.5h-6.9453v-1h5.5c1.108 0 2-0.892 2-2v-8c0-1.108-0.892-2-2-2h-7.6289c-0.57985-0.0229-0.6047 0.076884-1.0391-0.35742-0.43381-0.43381-0.613-0.64213-1.332-0.64258h-2zm0 1h2c0.31116-1.7e-6 0.52033 1.414e-4 0.99805 0.4707 0.47877 0.47161 0.6388 0.5293 1 0.5293h8.002c0.554 0 1 0.446 1 1v1h-14v-2c0-0.554 0.446-1 1-1zm-1 4h14v6c0 0.554-0.446 1-1 1h-12c-0.554 0-1-0.446-1-1z" fill="currentColor"/>
</svg>

<svg xmlns="http://www.w3.org/2000/svg" width="24" height="24">
    <path fill="currentColor" d="M6 5c-1.108 0-2 .892-2 2v9c0 1.108.892 2 2 2h5.5v1H4.555c-.308 0-.555.223-.555.5s.247.5.555.5h14.89c.308 0 .555-.223.555-.5s-.247-.5-.554-.5H12.5v-1H18c1.108 0 2-.892 2-2V8c0-1.108-.892-2-2-2h-7.629c-.58-.023-.604.077-1.039-.357C8.898 5.209 8.72 5 8 5H6zm0 1h2c.311 0 .52 0 .998.47.479.472.639.53 1 .53H18c.554 0 1 .446 1 1v1H5V7c0-.554.446-1 1-1zm-1 4h14v6c0 .554-.446 1-1 1H6c-.554 0-1-.446-1-1z" style="color:#050505;opacity:.7"/>
</svg>
